svgs/sharp-regular/typewriter.svg

<svg xmlns="http://www.w3.org/2000/svg" viewBox="0 0 512 512"><!--! Font Awesome Pro 6.6.0 by @fontawesome - https://fontawesome.com License - https://fontawesome.com/license (Commercial License) Copyright 2024 Fonticons, Inc. --><path d="M104 0L80 0l0 24 0 136 48 0 0-112 214.1 0L384 89.9l0 70.1 48 0 0-80 0-9.9-7-7L369 7l-7-7L352 0 104 0zM0 192l0 96 32 0 0 176 0 48 48 0 352 0 48 0 0-48 0-176 32 0 0-96-160 0-32 32-128 0-32-32L0 192zm80 96l352 0 0 176L80 464l0-176zm48 96l0 48 256 0 0-48-256 0zm40-64l-40 0 0 40 40 0 0-40zm32 0l0 40 40 0 0-40-40 0zm112 0l-40 0 0 40 40 0 0-40zm32 0l0 40 40 0 0-40-40 0z"/></svg>

<svg xmlns="http://www.w3.org/2000/svg" viewBox="0 0 512 512"><!--! Font Awesome Pro 6.4.0 by @fontawesome - https://fontawesome.com License - https://fontawesome.com/license (Commercial License) Copyright 2023 Fonticons, Inc. --><path d="M104 0H80V24 160h48V48H342.1L384 89.9V160h48V80 70.1l-7-7L369 7l-7-7H352 104zM0 192v96H32V464v48H80 432h48V464 288h32V192H352l-32 32H192l-32-32H0zm80 96H432V464H80V288zm48 96v48H384V384H128zm40-64H128v40h40V320zm32 0v40h40V320H200zm112 0H272v40h40V320zm32 0v40h40V320H344z"/></svg>
